synths/iCEX.svg

<svg width="480" height="480" viewBox="0 0 480 480" fill="none" xmlns="http://www.w3.org/2000/svg"><mask id="mask0-712213" maskUnits="userSpaceOnUse" x="0" y="0" width="480" height="480"><circle cx="240" cy="240" r="240" fill="url(#paint0_linear-591011)"/></mask><g mask="url(#mask0-712213)"><circle cx="240" cy="240" r="240" fill="#FF1E39"/><circle cx="240" cy="240" r="208" fill="#fff"/></g><circle cx="240" cy="240" r="184" fill="#0E052F"/><circle cx="240" cy="240" r="184" fill="#0E052F"/><path d="M221.485 147.256l25.075-25.075 25.088 25.088 14.591-14.59L246.56 93l-39.666 39.666 14.591 14.59zM182 157.56l14.591-14.59 14.59 14.59-14.59 14.591L182 157.56zm39.485 10.304l25.075 25.075 25.088-25.088 14.591 14.584-39.679 39.685-39.666-39.665-.019-.02 14.61-14.571zm60.454-10.304l14.591-14.59 14.59 14.59-14.59 14.591-14.591-14.591zm-20.582-.013h.013v.013l-14.81 14.81-14.791-14.784-.025-.026.025-.019 2.589-2.596 1.259-1.258 10.943-10.937 14.804 14.804-.007-.007z" fill="#F3BA2F"/><path fill="#02A6C2" d="M142.255 245h83.732v28.204h-83.732z"/><path fill="#5FCADE" d="M142.255 282.018h59.934v28.204h-59.934z"/><path fill="#ABEBF4" d="M142.255 319.037h28.204v28.204h-28.204z"/><path fill="#5FCADE" d="M107 282.018h28.204v28.204H107z"/><path d="M289.268 259.733c11.694-7.526 24.616-13.132 38.109-16.64 10.494-2.729 34.24-6.147 44.554-3.658-4.437 5.577-9.295 11.483-13.942 16.88-10.734 11.483-21.947 22.637-34.6 31.992-18.11 13.702-39.038 24.885-61.885 27.524-.419-8.695.27-17.54 3.148-25.815 2.489-7.496 6.657-14.422 12.203-20.029 3.628-3.957 7.796-7.495 12.413-10.254z" fill="#709B30"/><path d="M372.082 239.831c10.854 53.879-26.505 126.228-92.467 103.801-5.457-1.859-10.074-5.847-13.912-10.195 23.597-3.568 43.295-15.801 60.715-31.482 19.579-17.629 32.232-39.757 45.664-62.124z" fill="#98C455"/><defs><linearGradient id="paint0_linear-591011" x1="240" y1="0" x2="240" y2="701.818" gradientUnits="userSpaceOnUse"><stop stop-color="#08021E"/><stop offset="1" stop-color="#1F0777"/></linearGradient></defs></svg>

<svg width="480" height="480" viewBox="0 0 480 480" fill="none" xmlns="http://www.w3.org/2000/svg">
<mask id="mask0-712213" mask-type="alpha" maskUnits="userSpaceOnUse" x="0" y="0" width="480" height="480">
<circle cx="240" cy="240" r="240" fill="url(#paint0_linear-591011)"/>
</mask>
<g mask="url(#mask0-712213)">
<circle cx="240" cy="240" r="240" fill="#FF1E39"/>
<circle cx="240" cy="240" r="208" fill="white"/>
</g>
<circle cx="240" cy="240" r="184" fill="#0E052F"/>
<circle cx="240" cy="240" r="184" fill="#0E052F"/>
<path d="M221.485 147.256L246.56 122.181L271.648 147.269L286.239 132.679L246.56 93L206.894 132.666L221.485 147.256ZM182 157.56L196.591 142.97L211.181 157.56L196.591 172.151L182 157.56ZM221.485 167.864L246.56 192.939L271.648 167.851L286.239 182.435L246.56 222.12L206.894 182.455L206.875 182.435L221.485 167.864ZM281.939 157.56L296.53 142.97L311.12 157.56L296.53 172.151L281.939 157.56ZM261.357 157.547H261.37V157.56L246.56 172.37L231.769 157.586L231.744 157.56L231.769 157.541L234.358 154.945L235.617 153.687L246.56 142.75L261.364 157.554L261.357 157.547Z" fill="#F3BA2F"/>
<rect x="142.255" y="245" width="83.7316" height="28.2043" fill="#02A6C2"/>
<rect x="142.255" y="282.018" width="59.9342" height="28.2043" fill="#5FCADE"/>
<rect x="142.255" y="319.037" width="28.2043" height="28.2043" fill="#ABEBF4"/>
<rect x="107" y="282.018" width="28.2043" height="28.2043" fill="#5FCADE"/>
<path d="M289.268 259.733C300.962 252.207 313.884 246.601 327.377 243.093C337.871 240.364 361.617 236.946 371.931 239.435C367.494 245.012 362.636 250.918 357.989 256.315C347.255 267.798 336.042 278.952 323.389 288.307C305.279 302.009 284.351 313.192 261.504 315.831C261.085 307.136 261.774 298.291 264.652 290.016C267.141 282.52 271.309 275.594 276.855 269.987C280.483 266.03 284.651 262.492 289.268 259.733Z" fill="#709B30"/>
<path d="M372.082 239.831C382.936 293.71 345.577 366.059 279.615 343.632C274.158 341.773 269.541 337.785 265.703 333.437C289.3 329.869 308.998 317.636 326.418 301.955C345.997 284.326 358.65 262.198 372.082 239.831Z" fill="#98C455"/>
<defs>
<linearGradient id="paint0_linear-591011" x1="240" y1="0" x2="240" y2="701.818" gradientUnits="userSpaceOnUse">
<stop stop-color="#08021E"/>
<stop offset="1" stop-color="#1F0777"/>
</linearGradient>
</defs>
</svg>
